Numix-GalliumOS/64/categories/preferences-composer.svg

<?xml version="1.0" encoding="UTF-8" standalone="no"?>
<svg
   xmlns:dc="http://purl.org/dc/elements/1.1/"
   xmlns:cc="http://creativecommons.org/ns#"
   xmlns:rdf="http://www.w3.org/1999/02/22-rdf-syntax-ns#"
   xmlns:svg="http://www.w3.org/2000/svg"
   xmlns="http://www.w3.org/2000/svg"
   xmlns:sodipodi="http://sodipodi.sourceforge.net/DTD/sodipodi-0.dtd"
   xmlns:inkscape="http://www.inkscape.org/namespaces/inkscape"
   width="64"
   height="64"
   viewBox="0 0 64 64"
   id="svg2"
   version="1.1"
   inkscape:version="0.91 r"
   sodipodi:docname="preferences-composer.svg">
  <metadata
     id="metadata10">
    <rdf:RDF>
      <cc:Work
         rdf:about="">
        <dc:format>image/svg+xml</dc:format>
        <dc:type
           rdf:resource="http://purl.org/dc/dcmitype/StillImage" />
        <dc:title />
      </cc:Work>
    </rdf:RDF>
  </metadata>
  <defs
     id="defs8" />
  <sodipodi:namedview
     pagecolor="#ffffff"
     bordercolor="#666666"
     borderopacity="1"
     objecttolerance="10"
     gridtolerance="10"
     guidetolerance="10"
     inkscape:pageopacity="0"
     inkscape:pageshadow="2"
     inkscape:window-width="1920"
     inkscape:window-height="1056"
     id="namedview6"
     showgrid="true"
     inkscape:zoom="10.429825"
     inkscape:cx="11.609303"
     inkscape:cy="28.245376"
     inkscape:window-x="0"
     inkscape:window-y="24"
     inkscape:window-maximized="1"
     inkscape:current-layer="svg2">
    <inkscape:grid
       type="xygrid"
       id="grid4138" />
  </sodipodi:namedview>
  <path
     style="fill:#9ddee4;fill-opacity:1"
     d="M 20.692594,12 C 20.692594,12 18,12 18,14.664062 l 0,34.671876 C 18,52 20.54342,52 20.54342,52 l 22.91316,0 C 46,52 46,49.335938 46,49.335938 l 0,-32 L 40.91316,12 20.54342,12 Z M 22,16 l 13,0 0,7 7,0 0,25 -20,0 z"
     id="path4"
     inkscape:connector-curvature="0"
     sodipodi:nodetypes="csscscccccccccccc" />
  <path
     style="fill:#9ddee4;fill-opacity:1;fill-rule:evenodd;stroke:none;stroke-width:1px;stroke-linecap:butt;stroke-linejoin:miter;stroke-opacity:1"
     d="M 55.254238,15.999998 60,20.74576 39.118644,41.627118 32,44 34.372882,36.881356 Z"
     id="path4168"
     inkscape:connector-curvature="0"
     sodipodi:nodetypes="cccccc" />
</svg>

<svg xmlns="http://www.w3.org/2000/svg" viewBox="0 0 64 64">
 <path d="m 20.693 12 c 0 0 -2.693 0 -2.693 2.664 l 0 34.672 c 0 2.664 2.543 2.664 2.543 2.664 l 22.913 0 c 2.543 0 2.543 -2.664 2.543 -2.664 l 0 -32 l -5.087 -5.336 -20.37 0 m 1.457 4 l 13 0 0 7 7 0 0 25 -20 0 z" style="fill:#9ddee4;fill-opacity:1"/>
 <path d="m 55.25 16 4.746 4.746 -20.881 20.881 -7.119 2.373 2.373 -7.119" style="fill:#9ddee4;fill-opacity:1;stroke:none;fill-rule:evenodd"/>
</svg>
